X:104
T:La Val?riane
O:France
A:Provence
C:?
R:Marche
Z:Transcrit et/ou corrig? par Michel BELLON - 2005-04-04
Z:Pour toute observation mailto:galouvielle@free.fr
M:6/8
L:1/8
K:F
V:1 name=G
FA || S c2c cde | f2f fef | g2g gag | f3 !breath!f FA | c2c cde |
f2f fef | gag cde| f3- f!fine! :| [K:C] ce | g3 gfd | e3 cBc | d2d g2g |
e3 !breath!c ce | g3 gfd | e3 cBc | dcd gfd |1 c3- c :|2 cdc _BAG!D.C.! || [K:F]
"^TRIO"z | a2a agf | g2c c2z | f2f fed | e2A A2z |d2d dc=B | c2F F2z |
ABc dcB | (A3 G2)z | a2a agf | g2c c2z | f2f fed | e2A A2z | d2d dc=B |
c2F f2z | cdc BAG | F3-F S |]
V:2 name=V
FF | A2A ABc | A2A AcA | B2B BcB | A3 !breath!A FF | A2A ABc |
A2A AcA | BcB ABc | A3- A :|[K:C] cc | B3 BAB | c3 EFE | F2F GAB |
c3 !breath!c cc | B3 BAB | c3 EGE | F2F GAB |c3-c :| cfe dc_B ||
[K:F] z | f2f fed | e2c c2z | d2d dc=B | c2A A2z | B2B BA^G | A2A A2z |
FGA BAG | (F3 =E2)z | f2f fed | e2c c2z | d2d dc=B | c2A A2z | B2B BA^G |
A2A A2z | ABA GFE | F3- F |
<end>
<start>
